
MODULE A10_40002

	TASK PERS partdata pd_A10_40002:=["A10_40002_C","40002_C","",1,0,"","pdvProgStn1"];

	LOCAL PERS pose pose4:=[[0,0,-108],[1,0,0,0]];
	LOCAL PERS welddata weld7:=[8,0,[63,0,0,34,0,0,0,0,0],[0,0,0,0,0,0,0,0,0]];
	LOCAL PERS weavedata weave7:=[1,1,2,5,0,0,0,0,0,0,0,-2,0,0,0];
	LOCAL PERS weavedata weave8:=[1,1,2,5,0,0,0,0,0,0,0,0,0,0,0];
	LOCAL PERS welddata weld8:=[5,0,[63,0,2,39,0,0,0,0,0],[0,0,0,0,0,0,0,0,0]];
	LOCAL PERS weavedata weave9:=[1,1,2.5,8,0,0,0,0,0,0,0,-2,0,0,0];
	LOCAL PERS welddata weld9:=[6,0,[63,0,2,33,0,0,0,0,0],[0,0,0,0,0,0,0,0,0]];
	LOCAL PERS weavedata weave10:=[0,0,0,0,0,0,0,0,0,0,0,1,0,0,0];
	LOCAL PERS welddata weld10:=[5,0,[63,0,3,41,0,0,0,0,0],[0,0,0,0,0,0,0,0,0]];
	LOCAL PERS weavedata weave11:=[1,1,2.5,13,0,0,0,0,0,0,0,-1.5,0,0,0];

	PROC A10_40002_C()
	    SetDO doUTSUG, 1;
		PDispSet pose4;
		MoveJ [[-339.09,-266.10,507.64],[0.351053,-0.713978,-0.147913,-0.587467],[0,-2,0,0],[9E+09,0.517816,66.525,9E+09,9E+09,9E+09]], v1000, z50, tWeldGun\WObj:=obSide1;
		MoveJ [[623.58,-3.57,568.75],[0.557286,-0.513206,-0.50138,-0.417934],[0,-2,0,0],[9E+09,0.517338,0.000381154,9E+09,9E+09,9E+09]], v1000, z50, tWeldGun\WObj:=obSide1;
		MoveL [[17.37,-102.86,542.66],[0.557299,-0.513208,-0.501378,-0.417916],[0,-2,0,0],[9E+09,0.517434,0.000254562,9E+09,9E+09,9E+09]], v1000, fine, tWeldGun\WObj:=obSide1;
		PDispSet pose4;
		ArcLStart [[11.97,-61.66,541.42],[0.557297,-0.513203,-0.501382,-0.417921],[0,-2,0,0],[9E+09,0.517376,0.000254562,9E+09,9E+09,9E+09]], v150, seamRotSträng, weldRotSträng\Weave:=Noweave2, fine, tWeldGun\WObj:=obSide1;
		ArcC [[60.37,-17.27,541.41],[0.693568,-0.175291,-0.695722,-0.0648517],[0,-2,0,0],[9E+09,0.517663,-63.0501,9E+09,9E+09,9E+09]], [[45.80,42.96,541.41],[0.635252,0.190825,-0.691622,0.285828],[0,-2,0,0],[9E+09,0.517854,-122.183,9E+09,9E+09,9E+09]], v1000, seamRotSträng, weldRotSträng\Weave:=Noweave2, z1, tWeldGun\WObj:=obSide1;
		ArcC [[-11.55,61.72,541.41],[0.419779,0.499681,-0.514858,0.555899],[0,-2,0,0],[9E+09,0.517854,-179.618,9E+09,9E+09,9E+09]], [[-59.36,20.49,541.41],[0.0834248,0.690771,-0.193891,0.691578],[0,-2,0,0],[9E+09,0.517759,-239.977,9E+09,9E+09,9E+09]], v1000, seamRotSträng, weldRotSträng\Weave:=Noweave2, z1, tWeldGun\WObj:=obSide1;
		ArcC [[-52.11,-35.04,541.41],[0.233715,-0.704747,-0.134481,-0.656218],[0,-2,0,0],[9E+09,0.517759,-292.94,9E+09,9E+09,9E+09]], [[1.11,-62.78,541.41],[0.51889,-0.554806,-0.454915,-0.464752],[0,-2,0,0],[9E+09,0.517797,-350.033,9E+09,9E+09,9E+09]], v1000, seamRotSträng, weldRotSträng\Weave:=Noweave2, z1, tWeldGun\WObj:=obSide1;
		ArcCEnd [[6.92,-62.41,541.41],[0.539898,-0.533103,-0.480164,-0.440173],[0,-2,0,0],[9E+09,0.517759,-355.352,9E+09,9E+09,9E+09]], [[22.81,-58.50,541.41],[0.592636,-0.466008,-0.545522,-0.366092],[0,-2,0,0],[9E+09,0.517797,-370.323,9E+09,9E+09,9E+09]], v1000, seamRotSträng, weldRotSträngA\Weave:=weaveRot, fine, tWeldGun\WObj:=obSide1;
		MoveJ [[181.97,-390.75,507.64],[0.640121,-0.467432,-0.5596,-0.24207],[0,-2,0,0],[9E+09,0.517759,-370.323,9E+09,9E+09,9E+09]], v1000, z50, tWeldGun\WObj:=obSide1;
		MoveJ [[-339.09,-266.10,507.64],[0.351053,-0.713978,-0.147913,-0.587467],[0,-2,0,0],[9E+09,0.517816,66.525,9E+09,9E+09,9E+09]], v1000, z50, tWeldGun\WObj:=obSide1;
		MoveL [[-73.95,-73.48,543.99],[0.372199,-0.710343,-0.172917,-0.571821],[0,-2,0,0],[9E+09,0.51772,66.5249,9E+09,9E+09,9E+09]], v1000, fine, tWeldGun\WObj:=obSide1;
		ArcLStart [[-47.96,-45.86,541.37],[0.372199,-0.710344,-0.172918,-0.571819],[0,-2,0,0],[9E+09,0.517759,66.5249,9E+09,9E+09,9E+09]], v1000, seamSträng2, weldSträng2\Weave:=weaveSträng2, fine, tWeldGun\WObj:=obSide1;
		ArcC [[0.08,-66.35,541.36],[0.567182,-0.584988,-0.438495,-0.379227],[0,-2,0,0],[9E+09,0.517663,20.1794,9E+09,9E+09,9E+09]], [[60.03,-28.28,541.37],[0.682075,-0.259483,-0.68349,-0.0167949],[0,-2,0,0],[9E+09,0.51772,-44.5337,9E+09,9E+09,9E+09]], v1000, seamSträng2, weldSträng2\Weave:=weaveSträng2, z1, tWeldGun\WObj:=obSide1;
		ArcC [[57.22,33.60,541.36],[0.611056,0.0895373,-0.725586,0.303507],[0,-2,0,0],[9E+09,0.517759,-100.181,9E+09,9E+09,9E+09]], [[7.39,65.94,541.37],[0.410543,0.404878,-0.608739,0.544944],[0,-2,0,0],[9E+09,0.51793,-153.368,9E+09,9E+09,9E+09]], v1000, seamSträng2, weldSträng2\Weave:=weaveSträng2, z1, tWeldGun\WObj:=obSide1;
		ArcC [[-50.44,43.11,541.37],[0.107419,0.642873,-0.348146,0.673772],[0,-2,0,0],[9E+09,0.517892,-209.238,9E+09,9E+09,9E+09]], [[-66.07,-6.07,541.37],[0.16308,-0.727657,0.0707179,-0.662509],[0,-2,0,0],[9E+09,0.517663,-255.011,9E+09,9E+09,9E+09]], v1000, seamSträng2, weldSträng2\Weave:=weaveSträng2, z1, tWeldGun\WObj:=obSide1;
		ArcCEnd [[-56.93,-34.09,541.37],[0.306151,-0.725191,-0.0926644,-0.609738],[0,-2,0,0],[9E+09,0.51772,-280.677,9E+09,9E+09,9E+09]], [[-36.95,-55.12,541.36],[0.431994,-0.687412,-0.248913,-0.528097],[0,-2,0,0],[9E+09,0.517701,-305.922,9E+09,9E+09,9E+09]], v1000, seamSträng2, weldSträng2\Weave:=weaveSträng2, fine, tWeldGun\WObj:=obSide1;
		MoveJ [[-155.68,-228.61,529.90],[0.431993,-0.687407,-0.248914,-0.528103],[0,-2,0,0],[9E+09,0.517816,-305.922,9E+09,9E+09,9E+09]], v1000, z50, tWeldGun\WObj:=obSide1;
		WaitTime 10;
		MoveJ [[-264.92,79.43,529.88],[0.0365038,-0.701661,0.20532,-0.681308],[0,-2,0,0],[9E+09,0.518217,126.511,9E+09,9E+09,9E+09]], v1000, z50, tWeldGun\WObj:=obSide1;
		MoveL [[-131.18,19.70,543.44],[0.0768037,-0.698399,0.165787,-0.691992],[0,-2,0,0],[9E+09,0.518217,126.511,9E+09,9E+09,9E+09]], v1000, fine, tWeldGun\WObj:=obSide1;
		ArcLStart [[-68.47,11.98,541.50],[0.0768026,-0.6984,0.165792,-0.69199],[0,-2,0,0],[9E+09,0.518217,126.511,9E+09,9E+09,9E+09]], v1000, seamSträng2, weldSträng3\Weave:=weaveSträng3, fine, tWeldGun\WObj:=obSide1;
		ArcC [[-53.73,-44.10,541.49],[0.358426,-0.703902,-0.140619,-0.59689],[0,-2,0,0],[9E+09,0.518217,77.2085,9E+09,9E+09,9E+09]], [[6.79,-69.18,541.50],[0.597419,-0.554576,-0.455733,-0.357549],[0,-2,0,0],[9E+09,0.518236,20.9781,9E+09,9E+09,9E+09]], v1000, seamSträng2, weldSträng3\Weave:=weaveSträng3, z1, tWeldGun\WObj:=obSide1;
		ArcC [[59.36,-36.17,541.50],[0.694201,-0.29278,-0.655386,-0.0532271],[0,-2,0,0],[9E+09,0.518045,-32.0537,9E+09,9E+09,9E+09]], [[63.60,28.05,541.50],[0.639947,0.0439569,-0.71646,0.274261],[0,-2,0,0],[9E+09,0.518236,-87.2189,9E+09,9E+09,9E+09]], v1000, seamSträng2, weldSträng3\Weave:=weaveSträng3, z1, tWeldGun\WObj:=obSide1;
		ArcC [[29.25,63.06,541.50],[0.502058,0.293872,-0.654898,0.482373],[0,-2,0,0],[9E+09,0.518274,-128.532,9E+09,9E+09,9E+09]], [[-14.55,67.97,541.50],[0.323233,0.486326,-0.527952,0.616662],[0,-2,0,0],[9E+09,0.518351,-165.498,9E+09,9E+09,9E+09]], v1000, seamSträng2, weldSträng3\Weave:=weaveSträng3, z1, tWeldGun\WObj:=obSide1;
		ArcCEnd [[-52.42,45.65,541.50],[0.111674,0.628308,-0.347102,0.687224],[0,-2,0,0],[9E+09,0.518274,-202.362,9E+09,9E+09,9E+09]], [[-69.44,-3.11,541.50],[0.151646,-0.712292,0.0888132,-0.679524],[0,-2,0,0],[9E+09,0.518236,-245.983,9E+09,9E+09,9E+09]], v1000, seamSträng2, weldSträng3\Weave:=weaveSträng3, fine, tWeldGun\WObj:=obSide1;
		MoveJ [[-500.58,85.10,547.83],[0.257428,-0.731217,-0.014154,-0.631545],[0,-2,0,0],[9E+09,0.518217,-245.983,9E+09,9E+09,9E+09]], v1000, z50, tWeldGun\WObj:=obSide1;
		PDispOff;
		PistolrensKompl;
		ActStn1;
		PDispSet pose4;
		WaitTime 200;
		MoveJ [[2.76,588.78,472.32],[0.264474,0.632245,-0.355216,0.635719],[0,-2,0,0],[9E+09,-9.65174,-878.956,9E+09,9E+09,9E+09]], v1000, z50, tWeldGun\WObj:=obSide1;
		MoveJ [[615.46,-400.25,609.95],[0.588357,-0.0867875,-0.779566,0.196416],[0,-2,0,0],[9E+09,10.9969,-760.372,9E+09,9E+09,9E+09]], v1000, z50, tWeldGun\WObj:=obSide1;
		MoveL [[103.62,-27.99,546.58],[0.603537,-0.238814,-0.759056,0.0504213],[0,-1,0,0],[9E+09,14.8137,-760.281,9E+09,9E+09,9E+09]], v1000, fine, tWeldGun\WObj:=obSide1;
		ArcLStart [[71.77,-20.82,537.55],[0.603534,-0.238804,-0.759062,0.0504223],[0,-1,0,0],[9E+09,14.8138,-760.282,9E+09,9E+09,9E+09]], v1000, seamSträng2, weld8\Weave:=weave9, fine, tWeldGun\WObj:=obSide1;
		ArcC [[61.46,42.51,537.55],[0.523435,0.110213,-0.78807,0.304652],[0,-1,0,0],[9E+09,14.8138,-811.132,9E+09,9E+09,9E+09]], [[-18.85,72.31,537.55],[0.254342,0.541972,-0.58264,0.549642],[0,-1,0,0],[9E+09,14.814,-881.067,9E+09,9E+09,9E+09]], v1000, seamSträng2, weld8\Weave:=weave9, z1, tWeldGun\WObj:=obSide1;
		ArcC [[-73.23,14.87,537.55],[0.0751153,-0.768211,0.207492,-0.600962],[0,-1,0,0],[9E+09,14.8139,-944.98,9E+09,9E+09,9E+09]], [[-49.73,-55.77,537.55],[0.364517,-0.769467,-0.202781,-0.483659],[0,-1,0,0],[9E+09,14.8138,-1004.74,9E+09,9E+09,9E+09]], v1000, seamSträng2, weld8\Weave:=weave9, z1, tWeldGun\WObj:=obSide1;
		ArcC [[18.54,-72.39,537.55],[0.5491,-0.583798,-0.540721,-0.255514],[0,-1,0,0],[9E+09,14.8137,-1060.82,9E+09,9E+09,9E+09]], [[61.18,-42.92,537.54],[0.603637,-0.360016,-0.709639,-0.0492025],[0,-1,0,0],[9E+09,14.8137,-1101.41,9E+09,9E+09,9E+09]], v1000, seamSträng2, weld8\Weave:=weave9, z1, tWeldGun\WObj:=obSide1;
		ArcCEnd [[68.44,-30.01,537.55],[0.60554,-0.287909,-0.741829,0.0108707],[0,-1,0,0],[9E+09,14.8138,-1112.79,9E+09,9E+09,9E+09]], [[74.62,-3.96,537.55],[0.593806,-0.150394,-0.781396,0.119141],[0,-1,0,0],[9E+09,14.8138,-1133.42,9E+09,9E+09,9E+09]], v1000, seamSträng2, weld8\Weave:=weave9, fine, tWeldGun\WObj:=obSide1;
		MoveJ [[444.63,-147.06,641.07],[0.573481,-0.0604633,-0.784303,0.22876],[0,-1,0,0],[9E+09,14.8138,-1133.42,9E+09,9E+09,9E+09]], v1000, z50, tWeldGun\WObj:=obSide1;
		MoveJ [[-68.03,-521.33,461.97],[0.53344,-0.440154,-0.570512,-0.442967],[0,-2,0,0],[9E+09,-16.7445,-677.536,9E+09,9E+09,9E+09]], v1000, z50, tWeldGun\WObj:=obSide1;
		WaitTime 200;
		MoveL [[-6.74,-117.07,544.06],[0.502248,-0.494554,-0.484162,-0.51841],[0,-2,0,0],[9E+09,-16.7445,-677.536,9E+09,9E+09,9E+09]], v1000, fine, tWeldGun\WObj:=obSide1;
		ArcLStart [[-5.62,-74.86,545.83],[0.502245,-0.494555,-0.484165,-0.518409],[0,-2,0,0],[9E+09,-16.7445,-677.536,9E+09,9E+09,9E+09]], v1000, seamSträng2, weld9\Weave:=weave10, fine, tWeldGun\WObj:=obSide1;
		ArcC [[57.54,-48.21,545.83],[0.683534,-0.218939,-0.656554,-0.231908],[0,-2,0,0],[9E+09,-16.7447,-731.869,9E+09,9E+09,9E+09]], [[53.56,52.60,545.83],[0.662035,0.279062,-0.633339,0.287601],[0,-2,0,0],[9E+09,-16.7445,-816.313,9E+09,9E+09,9E+09]], v1000, seamSträng2, weld9\Weave:=weave10, z1, tWeldGun\WObj:=obSide1;
		ArcC [[-43.97,60.85,545.83],[0.314554,0.624487,-0.298354,0.649658],[0,-2,0,0],[9E+09,-16.7444,-897.679,9E+09,9E+09,9E+09]], [[-72.74,-18.57,545.83],[0.105424,-0.684139,-0.104654,-0.714063],[0,-2,0,0],[9E+09,-16.7446,-966.147,9E+09,9E+09,9E+09]], v1000, seamSträng2, weld9\Weave:=weave10, z1, tWeldGun\WObj:=obSide1;
		ArcC [[-45.71,-59.55,545.83],[0.333134,-0.612301,-0.322621,-0.640331],[0,-2,0,0],[9E+09,-16.7445,-1004.32,9E+09,9E+09,9E+09]], [[-19.92,-72.38,545.83],[0.449787,-0.53904,-0.434088,-0.564529],[0,-2,0,0],[9E+09,-16.7446,-1026.44,9E+09,9E+09,9E+09]], v1000, seamSträng2, weld9\Weave:=weave10, z1, tWeldGun\WObj:=obSide1;
		ArcCEnd [[-9.04,-74.52,545.83],[0.490263,-0.505494,-0.472726,-0.52976],[0,-2,0,0],[9E+09,-16.7447,-1034.92,9E+09,9E+09,9E+09]], [[12.57,-74.01,545.83],[0.561423,-0.432174,-0.540576,-0.453658],[0,-2,0,0],[9E+09,-16.7446,-1051.47,9E+09,9E+09,9E+09]], v1000, seamSträng2, weld9\Weave:=weave10, fine, tWeldGun\WObj:=obSide1;
		MoveJ [[37.49,-443.64,469.37],[0.580985,-0.376265,-0.610629,-0.384723],[0,-2,0,0],[9E+09,-16.7445,-1051.47,9E+09,9E+09,9E+09]], v1000, z50, tWeldGun\WObj:=obSide1;
		PDispOff;
		PistolrensKompl;
		ActStn1;
		PDispSet pose4;
		MoveJ [[37.49,-443.64,469.37],[0.580985,-0.376265,-0.610629,-0.384723],[0,-2,0,0],[9E+09,-16.7445,-1051.47,9E+09,9E+09,9E+09]], v1000, z50, tWeldGun\WObj:=obSide1;
		MoveJ [[549.03,131.43,525.58],[0.562376,0.206535,-0.746705,0.288975],[0,-2,0,0],[9E+09,-0.000783231,-437.689,9E+09,9E+09,9E+09]], v1000, z50, tWeldGun\WObj:=obSide1;
		WaitTime 160;
		MoveL [[101.08,39.56,543.72],[0.670613,0.053051,-0.708214,0.214228],[0,-2,0,0],[9E+09,-0.000783231,-437.689,9E+09,9E+09,9E+09]], v1000, fine, tWeldGun\WObj:=obSide1;
		ArcLStart [[74.11,33.23,531.18],[0.670603,0.0530502,-0.708225,0.21423],[0,-2,0,0],[9E+09,-1.811E-05,-437.689,9E+09,9E+09,9E+09]], v1000, seamSträng2, weld10\Weave:=weave11, fine, tWeldGun\WObj:=obSide1;
		ArcL [[74.09,33.17,541.11],[0.670604,0.0530514,-0.708225,0.214228],[0,-2,0,0],[9E+09,-5.63252E-05,-437.689,9E+09,9E+09,9E+09]], v1000, seamSträng2, weld10\Weave:=weave11, z1, tWeldGun\WObj:=obSide1;
		ArcC [[8.51,75.44,543.44],[0.462358,0.412566,-0.578073,0.53089],[0,-2,0,0],[9E+09,-0.000668586,-500.15,9E+09,9E+09,9E+09]], [[-70.90,27.15,543.44],[0.0406844,0.680078,-0.204629,0.702826],[0,-2,0,0],[9E+09,-0.000534833,-575.63,9E+09,9E+09,9E+09]], v1000, seamSträng2, weld10\Weave:=weave11, z1, tWeldGun\WObj:=obSide1;
		ArcC [[-58.55,-48.33,543.44],[0.318862,-0.690576,-0.165789,-0.627649],[0,-2,0,0],[9E+09,-0.000706801,-636.12,9E+09,9E+09,9E+09]], [[15.02,-74.42,543.43],[0.59619,-0.507074,-0.497249,-0.3744],[0,-2,0,0],[9E+09,-0.000783231,-698,9E+09,9E+09,9E+09]], v1000, seamSträng2, weld10\Weave:=weave11, z1, tWeldGun\WObj:=obSide1;
		ArcC [[59.86,-46.69,543.44],[0.689086,-0.302912,-0.642359,-0.144143],[0,-2,0,0],[9E+09,-0.000859662,-738.627,9E+09,9E+09,9E+09]], [[75.70,-5.78,543.44],[0.701343,-0.104377,-0.702485,0.0611178],[0,-2,0,0],[9E+09,-0.000745016,-772.218,9E+09,9E+09,9E+09]], v1000, seamSträng2, weld10\Weave:=weave11, z1, tWeldGun\WObj:=obSide1;
		ArcCEnd [[73.82,17.75,543.44],[0.683315,0.0060883,-0.71017,0.169409],[0,-2,0,0],[9E+09,-0.000706801,-790.104,9E+09,9E+09,9E+09]], [[60.38,46.02,543.44],[0.633716,0.152359,-0.69366,0.306633],[0,-2,0,0],[9E+09,-0.000745016,-813.897,9E+09,9E+09,9E+09]], v1000, seamSträng2, weld10\Weave:=weave11, fine, tWeldGun\WObj:=obSide1;
		MoveJ [[614.26,221.30,548.90],[0.534592,0.287573,-0.668362,0.429888],[0,-2,0,0],[9E+09,-0.000381972,-813.897,9E+09,9E+09,9E+09]], v1000, z50, tWeldGun\WObj:=obSide1;
		PDispOff;
		PistolrensKompl;
		ActStn1;
		Reset doUTSUG;
	ENDPROC


ENDMODULE